src/img/icons.svg

<svg aria-hidden="true" style="position: absolute; width: 0; height: 0; overflow: hidden;" version="1.1" xmlns="http://www.w3.org/2000/svg" xmlns:xlink="http://www.w3.org/1999/xlink">
<defs>
<symbol id="icon-YA" viewBox="0 0 52 32">
<path fill="#fbfbfb" style="fill: var(--color1, #fbfbfb)" d="M1.074 2.38h5.076l7.738 13.465h0.318l7.738-13.465h5.076l-10.746 17.992v11.628h-4.455v-11.628l-10.746-17.992zM29.498 32h-4.744l10.659-29.62h5.163l10.659 29.62h-4.744l-8.374-24.24h-0.232l-8.388 24.24zM30.293 20.401h15.389v3.76h-15.389v-3.76z"></path>
</symbol>
<symbol id="icon-instagram" viewBox="0 0 32 32">
<path d="M21.179 4h-11.692c-1.808 0.002-3.542 0.721-4.821 2s-1.998 3.012-2 4.821v11.692c0.002 1.808 0.721 3.542 2 4.821s3.012 1.998 4.821 2h11.692c1.808-0.002 3.542-0.721 4.821-2s1.998-3.012 2-4.821v-11.692c-0.002-1.808-0.721-3.542-2-4.821s-3.012-1.998-4.821-2zM15.333 22.513c-1.156 0-2.287-0.343-3.248-0.985s-1.711-1.555-2.153-2.624c-0.442-1.068-0.558-2.244-0.333-3.378s0.782-2.176 1.6-2.993c0.818-0.818 1.859-1.374 2.993-1.6s2.309-0.11 3.378 0.333 1.981 1.192 2.624 2.153c0.642 0.961 0.985 2.092 0.985 3.248-0.002 1.55-0.618 3.036-1.714 4.132s-2.582 1.712-4.132 1.714zM22.641 10.82c-0.289 0-0.572-0.086-0.812-0.246s-0.428-0.389-0.538-0.656c-0.111-0.267-0.14-0.561-0.083-0.844s0.196-0.544 0.4-0.748c0.204-0.204 0.465-0.344 0.748-0.4s0.577-0.027 0.844 0.083c0.267 0.111 0.495 0.298 0.656 0.538s0.246 0.523 0.246 0.812c0 0.388-0.154 0.759-0.428 1.033s-0.646 0.428-1.033 0.428zM19.231 16.667c0 0.771-0.229 1.524-0.657 2.165s-1.037 1.14-1.749 1.435c-0.712 0.295-1.496 0.372-2.252 0.222s-1.45-0.522-1.995-1.067-0.916-1.239-1.067-1.995c-0.15-0.756-0.073-1.54 0.222-2.252s0.795-1.321 1.435-1.749c0.641-0.428 1.395-0.657 2.165-0.657 1.034 0 2.025 0.411 2.756 1.142s1.142 1.722 1.142 2.756z"></path>
</symbol>
<symbol id="icon-youtube" viewBox="0 0 32 32">
<path d="M18.226 15.768l-3.119-1.455c-0.272-0.126-0.496 0.015-0.496 0.317v2.742c0 0.301 0.224 0.443 0.496 0.317l3.118-1.455c0.274-0.128 0.274-0.336 0.001-0.464zM16 2.667c-7.364 0-13.333 5.969-13.333 13.333s5.969 13.333 13.333 13.333c7.364 0 13.333-5.969 13.333-13.333s-5.969-13.333-13.333-13.333zM16 21.417c-6.825 0-6.944-0.615-6.944-5.417s0.119-5.417 6.944-5.417c6.825 0 6.944 0.615 6.944 5.417s-0.119 5.417-6.944 5.417z"></path>
</symbol>
<symbol id="icon-facebook" viewBox="0 0 32 32">
<path d="M29.333 16.033c0-7.378-5.973-13.367-13.333-13.367s-13.333 5.988-13.333 13.367c0 6.469 4.587 11.856 10.667 13.099v-9.089h-2.667v-4.010h2.667v-3.342c0-2.58 2.093-4.678 4.667-4.678h3.333v4.010h-2.667c-0.733 0-1.333 0.601-1.333 1.337v2.673h4v4.010h-4v9.29c6.733-0.668 12-6.363 12-13.3z"></path>
</symbol>
<symbol id="icon-burger" viewBox="0 0 32 32">
<path stroke-linejoin="round" stroke-linecap="round" stroke-miterlimit="4" stroke-width="2.8571" d="M4 20h24M4 12h24"></path>
</symbol>
<symbol id="icon-close" viewBox="0 0 32 32">
<path  d="M25.143 8.983l-2.126-2.126-7.016 7.016-7.016-7.016-2.126 2.126 7.016 7.017-7.016 7.016 2.126 2.126 7.017-7.016 7.016 7.016 2.126-2.126-7.016-7.016 7.016-7.017z"></path>
</symbol>
</defs>
</svg>

<svg aria-hidden="true" style="position:absolute;width:0;height:0;overflow:hidden" xmlns="http://www.w3.org/2000/svg"><defs><symbol id="icon-YA" viewBox="0 0 52 32"><path fill="#fbfbfb" style="fill:var(--color1, #fbfbfb)" d="M1.074 2.38H6.15l7.738 13.465h.318L21.944 2.38h5.076L16.274 20.372V32h-4.455V20.372L1.073 2.38zM29.498 32h-4.744L35.413 2.38h5.163L51.235 32h-4.744L38.117 7.76h-.232L29.497 32zm.795-11.599h15.389v3.76H30.293v-3.76z"/></symbol><symbol id="icon-instagram" viewBox="0 0 32 32"><path d="M21.179 4H9.487a6.829 6.829 0 0 0-6.821 6.821v11.692a6.829 6.829 0 0 0 6.821 6.821h11.692A6.829 6.829 0 0 0 28 22.513V10.821A6.829 6.829 0 0 0 21.179 4zm-5.846 18.513a5.849 5.849 0 0 1-5.401-3.609c-.442-1.068-.558-2.244-.333-3.378s.782-2.176 1.6-2.993a5.847 5.847 0 0 1 9.98 4.134 5.854 5.854 0 0 1-5.846 5.846zm7.308-11.693a1.465 1.465 0 0 1-1.35-.902c-.111-.267-.14-.561-.083-.844a1.468 1.468 0 0 1 1.148-1.148 1.469 1.469 0 0 1 1.5.621 1.457 1.457 0 0 1-.182 1.845 1.462 1.462 0 0 1-1.033.428zm-3.41 5.847a3.898 3.898 0 1 1-7.797-.002 3.898 3.898 0 0 1 7.797.002z"/></symbol><symbol id="icon-youtube" viewBox="0 0 32 32"><path d="m18.226 15.768-3.119-1.455c-.272-.126-.496.015-.496.317v2.742c0 .301.224.443.496.317l3.118-1.455c.274-.128.274-.336.001-.464zM16 2.667C8.636 2.667 2.667 8.636 2.667 16S8.636 29.333 16 29.333 29.333 23.364 29.333 16 23.364 2.667 16 2.667zm0 18.75c-6.825 0-6.944-.615-6.944-5.417s.119-5.417 6.944-5.417 6.944.615 6.944 5.417-.119 5.417-6.944 5.417z"/></symbol><symbol id="icon-facebook" viewBox="0 0 32 32"><path d="M29.333 16.033C29.333 8.655 23.36 2.666 16 2.666S2.667 8.654 2.667 16.033c0 6.469 4.587 11.856 10.667 13.099v-9.089h-2.667v-4.01h2.667v-3.342a4.677 4.677 0 0 1 4.667-4.678h3.333v4.01h-2.667c-.733 0-1.333.601-1.333 1.337v2.673h4v4.01h-4v9.29c6.733-.668 12-6.363 12-13.3z"/></symbol><symbol id="icon-burger" viewBox="0 0 32 32"><path stroke-linejoin="round" stroke-linecap="round" stroke-width="2.857" d="M4 20h24M4 12h24"/></symbol><symbol id="icon-close" viewBox="0 0 32 32"><path d="m25.143 8.983-2.126-2.126-7.016 7.016-7.016-7.016-2.126 2.126L13.875 16l-7.016 7.016 2.126 2.126 7.017-7.016 7.016 7.016 2.126-2.126L18.128 16l7.016-7.017z"/></symbol></defs></svg>
